dist/img/sprites/product-ico-7.svg

<svg width="140" height="140" viewBox="0 0 140 140" fill="none" xmlns="http://www.w3.org/2000/svg">
<path fill-rule="evenodd" clip-rule="evenodd" d="M69.9498 6.35565C34.8276 6.35565 6.3554 34.8278 6.3554 69.95C6.3554 105.072 34.8276 133.544 69.9498 133.544C105.072 133.544 133.544 105.072 133.544 69.95C133.544 34.8278 105.072 6.35565 69.9498 6.35565ZM0.204102 69.95C0.204102 31.4305 31.4303 0.204346 69.9498 0.204346C108.469 0.204346 139.695 31.4305 139.695 69.95C139.695 108.469 108.469 139.696 69.9498 139.696C31.4303 139.696 0.204102 108.469 0.204102 69.95ZM80.2298 41.6156C78.2336 41.6156 76.6154 43.2338 76.6154 45.23C76.6154 47.2261 78.2336 48.8443 80.2298 48.8443C82.2259 48.8443 83.8441 47.2261 83.8441 45.23C83.8441 43.2338 82.2259 41.6156 80.2298 41.6156ZM70.4641 45.23C70.4641 39.8366 74.8363 35.4643 80.2298 35.4643C85.6232 35.4643 89.9954 39.8366 89.9954 45.23C89.9954 50.6234 85.6232 54.9956 80.2298 54.9956C74.8363 54.9956 70.4641 50.6234 70.4641 45.23ZM49.8949 43.4436C51.0078 41.3055 53.2102 39.9843 55.5898 39.9843C58.0011 39.9843 60.1679 41.3424 61.2756 43.4264L61.2798 43.4344L75.4464 70.2769L78.6057 64.5763C78.6066 64.5746 78.6076 64.5728 78.6085 64.5711C79.9314 62.1736 82.4755 60.7443 85.1698 60.7443H91.1598C93.8544 60.7443 96.3989 62.174 97.7216 64.5722C97.7224 64.5736 97.7231 64.5749 97.7239 64.5763L113.92 93.8198L108.539 96.8001L92.3392 67.5501L92.3356 67.5437C92.1377 67.1844 91.7036 66.8956 91.1598 66.8956H85.1698C84.6259 66.8956 84.1918 67.1844 83.9939 67.5437L83.9899 67.5508L67.7799 96.8008L62.3996 93.8191L71.8838 76.7054L55.8439 46.3135C55.8436 46.313 55.8433 46.3124 55.843 46.3119C55.7707 46.1773 55.6581 46.1356 55.5898 46.1356C55.4938 46.1356 55.4 46.1895 55.3509 46.2843L55.3455 46.2948L28.7301 96.7451L23.2894 93.8749L49.8886 43.4556C49.8907 43.4516 49.8928 43.4476 49.8949 43.4436Z" fill="#ffffff"/>
</svg>

<svg width="140" height="140" viewBox="0 0 140 140" fill="none" xmlns="http://www.w3.org/2000/svg"><path fill-rule="evenodd" clip-rule="evenodd" d="M69.95 6.356c-35.122 0-63.595 28.472-63.595 63.594s28.473 63.594 63.595 63.594 63.594-28.472 63.594-63.594S105.072 6.356 69.95 6.356zM.204 69.95C.204 31.43 31.43.204 69.95.204c38.519 0 69.745 31.226 69.745 69.746 0 38.519-31.226 69.746-69.745 69.746-38.52 0-69.746-31.227-69.746-69.746zM80.23 41.616a3.614 3.614 0 100 7.228 3.614 3.614 0 000-7.228zm-9.766 3.614c0-5.393 4.372-9.766 9.766-9.766 5.393 0 9.765 4.373 9.765 9.766s-4.372 9.766-9.765 9.766c-5.394 0-9.766-4.373-9.766-9.766zm-20.57-1.786a6.421 6.421 0 015.696-3.46c2.411 0 4.578 1.358 5.686 3.442l.004.008 14.166 26.843 3.16-5.7.003-.006c1.322-2.397 3.867-3.827 6.56-3.827h5.99c2.695 0 5.24 1.43 6.563 3.828l.002.004L113.92 93.82l-5.381 2.98-16.2-29.25-.003-.006c-.198-.36-.632-.648-1.176-.648h-5.99c-.544 0-.978.288-1.176.648l-.004.007L67.78 96.8l-5.38-2.982 9.484-17.114-16.04-30.392-.001-.001c-.072-.135-.185-.176-.253-.176a.27.27 0 00-.24.148l-.005.01L28.73 96.746l-5.44-2.87 26.599-50.42.006-.011z" fill="#fff"/></svg>
